public/Img/Contact/mobile__icon.svg

<svg width="48" height="48" viewBox="0 0 48 48" fill="none" xmlns="http://www.w3.org/2000/svg">
<circle cx="24" cy="24" r="24" fill="#6B7CFF"/>
<path d="M17.63 15.8333C17.7 16.8717 17.875 17.8867 18.155 18.855L16.755 20.255C16.2767 18.855 15.9733 17.3733 15.8683 15.8333H17.63V15.8333ZM29.1333 29.8567C30.125 30.1367 31.14 30.3117 32.1667 30.3817V32.12C30.6267 32.015 29.145 31.7117 27.7333 31.245L29.1333 29.8567V29.8567ZM18.75 13.5H14.6667C14.025 13.5 13.5 14.025 13.5 14.6667C13.5 25.6217 22.3783 34.5 33.3333 34.5C33.975 34.5 34.5 33.975 34.5 33.3333V29.2617C34.5 28.62 33.975 28.095 33.3333 28.095C31.8867 28.095 30.475 27.8617 29.1683 27.43C29.0517 27.3833 28.9233 27.3717 28.8067 27.3717C28.5033 27.3717 28.2117 27.4883 27.9783 27.71L25.4117 30.2767C22.11 28.585 19.4033 25.89 17.7233 22.5883L20.29 20.0217C20.6167 19.695 20.71 19.24 20.5817 18.8317C20.15 17.525 19.9167 16.125 19.9167 14.6667C19.9167 14.025 19.3917 13.5 18.75 13.5Z" fill="white"/>
</svg>

<svg width="48" height="48" fill="none" xmlns="http://www.w3.org/2000/svg"><circle cx="24" cy="24" r="24" fill="#6B7CFF"/><path d="M17.63 15.833c.07 1.039.245 2.054.525 3.022l-1.4 1.4a17.298 17.298 0 0 1-.887-4.422h1.762Zm11.503 14.024c.992.28 2.007.455 3.034.525v1.738a17.997 17.997 0 0 1-4.434-.875l1.4-1.388ZM18.75 13.5h-4.083a1.17 1.17 0 0 0-1.167 1.167c0 10.955 8.878 19.833 19.833 19.833a1.17 1.17 0 0 0 1.167-1.167v-4.071a1.17 1.17 0 0 0-1.167-1.167c-1.446 0-2.858-.233-4.165-.665a.978.978 0 0 0-.361-.058c-.304 0-.595.116-.829.338l-2.566 2.567a17.674 17.674 0 0 1-7.689-7.689l2.567-2.566a1.17 1.17 0 0 0 .292-1.19 13.253 13.253 0 0 1-.665-4.165A1.17 1.17 0 0 0 18.75 13.5Z" fill="#fff"/></svg>
